svg/credit-card.svg

<svg xmlns="http://www.w3.org/2000/svg" viewBox="0 0 64 42" enable-background="new 0 0 64 42"><style type="text/css">.st0{fill:#333333;}</style><title>credit-card</title><desc>Created with Sketch.</desc><path class="st0" d="M60 0h-56c-2.2 0-4 1.8-4 4v34c0 2.2 1.8 4 4 4h56c2.2 0 4-1.8 4-4v-34c0-2.2-1.8-4-4-4zm0 37c0 .5-.4 1-1 1h-54c-.5 0-1-.4-1-1v-19h56v19zm-56-29v-3c0-.5.4-1 1-1h54c.5 0 1 .4 1 1v3h-56zM23.5 34h11c.8 0 1.5-.7 1.5-1.5s-.7-1.5-1.5-1.5h-11c-.8 0-1.5.7-1.5 1.5s.7 1.5 1.5 1.5zM23.5 29h11c.8 0 1.5-.7 1.5-1.5s-.7-1.5-1.5-1.5h-11c-.8 0-1.5.7-1.5 1.5s.7 1.5 1.5 1.5zM8 36h8c1.1 0 2-.9 2-2v-6c0-1.1-.9-2-2-2h-8c-1.1 0-2 .9-2 2v6c0 1.1.9 2 2 2z"/></svg>

<?xml version="1.0" encoding="utf-8"?>
<!-- Generator: Adobe Illustrator 21.0.0, SVG Export Plug-In . SVG Version: 6.00 Build 0)  -->
<svg version="1.1" id="Layer_1" xmlns="http://www.w3.org/2000/svg" xmlns:xlink="http://www.w3.org/1999/xlink" x="0px" y="0px"
	 viewBox="0 0 64 42" style="enable-background:new 0 0 64 42;" xml:space="preserve">
<style type="text/css">
	.st0{fill:#333333;}
</style>
<title>credit-card</title>
<desc>Created with Sketch.</desc>
<g>
	<path class="st0" d="M60,0H4C1.8,0,0,1.8,0,4v4v10v20c0,2.2,1.8,4,4,4h56c2.2,0,4-1.8,4-4V18V8V4C64,1.8,62.2,0,60,0z M60,37
		c0,0.5-0.4,1-1,1H5c-0.5,0-1-0.4-1-1V18h56V37z M4,8V5c0-0.5,0.4-1,1-1H59c0.5,0,1,0.4,1,1v3H4z"/>
	<path class="st0" d="M23.5,34h11c0.8,0,1.5-0.7,1.5-1.5S35.3,31,34.5,31h-11c-0.8,0-1.5,0.7-1.5,1.5S22.7,34,23.5,34z"/>
	<path class="st0" d="M23.5,29h11c0.8,0,1.5-0.7,1.5-1.5S35.3,26,34.5,26h-11c-0.8,0-1.5,0.7-1.5,1.5S22.7,29,23.5,29z"/>
	<path class="st0" d="M8,36h8c1.1,0,2-0.9,2-2v-6c0-1.1-0.9-2-2-2H8c-1.1,0-2,0.9-2,2v6C6,35.1,6.9,36,8,36z"/>
</g>
</svg>
